assets/svg/icon_2fa_email_verification.svg

<svg width="81" height="80" viewBox="0 0 81 80" fill="none" xmlns="http://www.w3.org/2000/svg">
<path d="M62.9437 16C54.6906 16 48 22.6906 48 30.9437C48 39.1969 54.6906 45.8875 62.9437 45.8875C71.1969 45.8875 77.8875 39.1969 77.8875 30.9437C77.8875 22.6906 71.1969 16 62.9437 16Z" fill="#0166FF"/>
<path d="M57 31.1667L61.1667 35.3333L69.5 27" stroke="white" stroke-width="2" stroke-linecap="round" stroke-linejoin="round"/>
<path d="M41.282 35.1762L39.3617 23.298C38.7758 19.6762 35.6492 17.0137 31.9805 17.0137H30.3445C28.1383 17.0137 26.318 18.6668 26.0539 20.8012H32.2977C32.5992 20.8012 32.8445 21.0465 32.8445 21.348C32.8445 21.6496 32.5992 21.8949 32.2977 21.8949H26.0195V29.3559H34.8602C35.1617 29.3559 35.407 29.6012 35.407 29.9027C35.407 30.2043 35.1617 30.4496 34.8602 30.4496H26.0195V35.9637C26.0195 38.2965 27.9102 40.1871 30.243 40.1871H37.0148C39.6773 40.1887 41.707 37.8043 41.282 35.1762Z" fill="#E1EAF8"/>
<path d="M32.4117 54.039C32.2914 54.039 32.1695 54 32.0679 53.9172L3.01951 30.4172C2.78513 30.2265 2.74763 29.8828 2.93826 29.6484C3.12888 29.414 3.47263 29.3765 3.70701 29.5672L32.7554 53.0687C32.9898 53.2594 33.0039 53.5531 32.8133 53.7875C32.7054 53.9203 32.5711 54.039 32.4117 54.039ZM41.3539 54.039C41.1945 54.039 41.1898 53.8719 41.082 53.739C40.8914 53.5047 40.7742 53.2578 41.0101 53.0672L51.7226 44.4C51.957 44.2109 52.3023 44.2468 52.4914 44.4812C52.682 44.7156 52.6445 45.0609 52.4101 45.25L41.6976 53.9172C41.5961 54 41.4742 54.039 41.3539 54.039Z" fill="#9A9A9A"/>
<path d="M67.2641 77.8324H6.5C4.26875 77.8324 2.45312 76.0168 2.45312 73.7855V31.6934C2.45312 30.259 3.09219 28.9184 4.20781 28.0168L13.5375 20.4684C13.7719 20.2793 14.1172 20.3152 14.3062 20.5496C14.4969 20.784 14.4594 21.1293 14.225 21.3184L4.89531 28.8668C4.0375 29.5605 3.54688 30.5902 3.54688 31.6934V73.7855C3.54688 75.4137 4.87188 76.7387 6.5 76.7387H67.2641C68.8922 76.7387 70.2172 75.4137 70.2172 73.7855V46.1215C70.2172 45.8199 70.4625 45.5746 70.7641 45.5746C71.0656 45.5746 71.3109 45.8199 71.3109 46.1215V73.7871C71.3109 76.0184 69.4953 77.8324 67.2641 77.8324ZM47.7437 11.6215C47.6234 11.6215 47.5016 11.5824 47.4 11.4996L37.475 3.46992C37.1312 3.1918 36.6312 3.1918 36.2875 3.46992L26.3625 11.4996C26.1281 11.6887 25.7828 11.6527 25.5938 11.4184C25.4031 11.184 25.4406 10.8387 25.675 10.6496L35.6 2.61992C36.3422 2.01992 37.4203 2.01992 38.1625 2.61992L48.0875 10.6496C48.3219 10.8402 48.3594 11.184 48.1687 11.4184C48.0609 11.5527 47.9031 11.6215 47.7437 11.6215Z" fill="#9A9A9A"/>
<path d="M30.0851 11.0742L33.5398 8.27891C36.6742 5.74297 41.1539 5.74297 44.2883 8.27891L47.7429 11.0742H30.0851ZM9.66951 35.1945L13.8804 38.5008L13.707 24.7867L9.61794 28.0961C7.35076 29.9305 7.37576 33.3945 9.66951 35.1945ZM69.6258 76.9133C69.5054 76.9133 69.3836 76.8742 69.282 76.7914L37.9023 51.4039C37.3101 50.9258 36.4523 50.9258 35.8601 51.4039L7.18357 74.6039C6.94919 74.793 6.60388 74.757 6.41482 74.5227C6.22419 74.2883 6.26169 73.943 6.49607 73.7539L35.1711 50.5539C36.1617 49.7523 37.5992 49.7523 38.5898 50.5539L69.9711 75.9414C70.2054 76.132 70.2429 76.4758 70.0523 76.7102C69.9429 76.8445 69.7851 76.9133 69.6258 76.9133Z" fill="#9A9A9A"/>
<path d="M13.8828 39.0477C13.5813 39.0477 13.3359 38.8023 13.3359 38.5008V13.2648C13.3359 11.7555 14.5641 10.5273 16.0734 10.5273H57.6922C59.2016 10.5273 60.4297 11.7555 60.4297 13.2648V14.293C60.4297 14.5945 60.1844 14.8398 59.8828 14.8398C59.5813 14.8398 59.3359 14.5945 59.3359 14.293V13.2648C59.3359 12.3586 58.5984 11.6211 57.6922 11.6211H16.0734C15.1672 11.6211 14.4297 12.3586 14.4297 13.2648V38.5008C14.4297 38.8023 14.1859 39.0477 13.8828 39.0477Z" fill="#9A9A9A"/>
<path d="M48.893 20.8213H23.3164C23.0148 20.8213 22.7695 20.576 22.7695 20.2744C22.7695 19.9729 23.0148 19.7275 23.3164 19.7275H48.893C49.1945 19.7275 49.4398 19.9729 49.4398 20.2744C49.4398 20.576 49.1945 20.8213 48.893 20.8213ZM45.7023 29.3682H23.3164C23.0148 29.3682 22.7695 29.1229 22.7695 28.8213C22.7695 28.5197 23.0148 28.2744 23.3164 28.2744H45.7023C46.0039 28.2744 46.2492 28.5197 46.2492 28.8213C46.2492 29.1229 46.0039 29.3682 45.7023 29.3682ZM46.1852 37.9135H23.3164C23.0148 37.9135 22.7695 37.6682 22.7695 37.3666C22.7695 37.065 23.0148 36.8197 23.3164 36.8197H46.1867C46.4883 36.8197 46.7336 37.065 46.7336 37.3666C46.7336 37.6682 46.4883 37.9135 46.1852 37.9135Z" fill="#9A9A9A"/>
</svg>

<svg xmlns="http://www.w3.org/2000/svg" width="81" height="80" fill="none"><path fill="#0166FF" d="M62.944 16C54.69 16 48 22.69 48 30.944c0 8.253 6.69 14.944 14.944 14.944 8.253 0 14.944-6.691 14.944-14.944S71.197 16 62.944 16"/><path stroke="#fff" stroke-linecap="round" stroke-linejoin="round" stroke-width="2" d="m57 31.167 4.167 4.166L69.5 27"/><path fill="#E1EAF8" d="m41.282 35.176-1.92-11.878a7.48 7.48 0 0 0-7.382-6.284h-1.636a4.325 4.325 0 0 0-4.29 3.787h6.244a.547.547 0 0 1 0 1.094h-6.279v7.46h8.841a.547.547 0 0 1 0 1.095h-8.84v5.514a4.223 4.223 0 0 0 4.223 4.223h6.772a4.32 4.32 0 0 0 4.267-5.01"/><path fill="#9A9A9A" d="M32.412 54.039a.54.54 0 0 1-.344-.122L3.02 30.417a.546.546 0 1 1 .687-.85L32.755 53.07c.235.19.249.484.058.718-.108.133-.242.252-.401.252m8.942 0c-.16 0-.164-.167-.272-.3-.19-.234-.308-.481-.072-.672L51.723 44.4a.548.548 0 0 1 .687.85l-10.712 8.667a.54.54 0 0 1-.344.122"/><path fill="#9A9A9A" d="M67.264 77.832H6.5a4.05 4.05 0 0 1-4.047-4.046V31.692c0-1.434.64-2.775 1.755-3.676l9.33-7.549a.547.547 0 0 1 .687.85l-9.33 7.549a3.62 3.62 0 0 0-1.348 2.826v42.093A2.957 2.957 0 0 0 6.5 76.739h60.764a2.957 2.957 0 0 0 2.953-2.954V46.123a.547.547 0 0 1 1.094 0v27.665a4.05 4.05 0 0 1-4.047 4.045m-19.52-66.21a.54.54 0 0 1-.344-.122l-9.925-8.03a.95.95 0 0 0-1.187 0l-9.925 8.03a.548.548 0 0 1-.688-.85L35.6 2.62c.742-.6 1.82-.6 2.563 0l9.925 8.03a.546.546 0 0 1-.344.971"/><path fill="#9A9A9A" d="M30.085 11.074 33.54 8.28a8.544 8.544 0 0 1 10.748 0l3.455 2.795zM9.67 35.194l4.21 3.307-.173-13.714-4.09 3.31c-2.266 1.833-2.241 5.297.053 7.097m59.956 41.72a.54.54 0 0 1-.344-.123l-31.38-25.387a1.63 1.63 0 0 0-2.042 0l-28.676 23.2a.548.548 0 0 1-.688-.85l28.675-23.2a2.73 2.73 0 0 1 3.419 0L69.97 75.94a.546.546 0 0 1-.345.972"/><path fill="#9A9A9A" d="M13.883 39.048a.55.55 0 0 1-.547-.547V13.265a2.74 2.74 0 0 1 2.737-2.738h41.62a2.74 2.74 0 0 1 2.737 2.738v1.028a.547.547 0 0 1-1.094 0v-1.028c0-.906-.738-1.644-1.644-1.644H16.073c-.906 0-1.643.738-1.643 1.644V38.5a.547.547 0 0 1-.547.547"/><path fill="#9A9A9A" d="M48.893 20.821H23.316a.547.547 0 0 1 0-1.094h25.577a.548.548 0 0 1 0 1.094m-3.19 8.547H23.315a.547.547 0 0 1 0-1.094h22.386a.547.547 0 0 1 0 1.094m.482 8.546H23.316a.547.547 0 0 1 0-1.094h22.87a.547.547 0 1 1 0 1.093"/></svg>
